X: 20757
T: ABBY'S DANCE
C:
%R: reel
B: Elias Howe "The Musician's Companion" 1843 p.75 #4
S: http://imslp.org/wiki/The_Musician's_Companion_(Howe,_Elias)
Z: 2015 John Chambers <jc:trillian.mit.edu>
N: The rhythms don't match between the strains; not fixed.
M: C
L: 1/8
K: A
% - - - - - - - - - - - - - - - - - - - - - - - - -
|:\
Aece Aece | (Aaaf) {f}fe(cA) | .E.B.G.B .E.B.G.B | .E.B.G.B {g}f(ecA) |\
Aece Aece | (Aaaf) {f}fe(cA) | .E.B.G.B .E.B.G.B | {g}fe(ce) A2A2 :|
(3(efg) |\
(ae)(cA) .E2(AB) | (cA)(dA) (eA)(fA) | (ae)(cA) EAcA | dc{c}BA B2 (3(efg) |\
(ae)(cA) .E2(AB) | (cA)(dA) (eA)(fA) | efed (ca)fd | c2A2 A2 :|
% - - - - - - - - - - - - - - - - - - - - - - - - -

%%sep 1 1 500

